X: 5750
T: Cahir's Kitchen
R: reel
M: 4/4
K: Eminor
E2GB E2GB|A2FA DE 3(FED|E2GB E2GA|B_BBc BAGF|
E2GB E2GB|A2FA DE 3(FED|(3EFG (3FGA (3GAB (3ABc|BAFG E4||
eBgf eBfe|dAFA DE 3(FED|eBgf eBBA|B_BBc BAGF|
eBgf eBfe|dAFA DE 3(FED|(3EFG (3FGA (3GAB (3ABc|BAFG E4||

